X: 6
T: The Cascades
C: Scott Joplin
%%abc-version 2.0
%%abcx-abcm2ps-target-version 5.9.1 (29 Sep 2008)
%%abc-creator hum2abc beta
%%abcx-conversion-date 2021/07/20 09:00:57
%%abc-copyright Copyright 2004 by Craig Stuart Sapp
%%abc-edited-by Craig Stuart Sapp
%%abc-edited-by Craig Stuart Sapp
%%abcx-initial-encoding-date 2004/06/09
%%humdrum-veritas 1046676
%%humdrum-veritas-data 4243562954
%%removed 0's from note length
%%linebreak <none>
%%barnumbers 0
L: 1/8
M: 2/4
N: Derived from cascades.krn
Q: "Tempo di Marcia" 1/4=100
%%staves {1 2}
V: 1 clef=treble
V: 2 clef=bass
K: C
[V:1] [K:clef=treble][M:2/4]GG2A | 
[V:2] [K:clef=bass][M:2/4][G,G,,][G,2G,,2][A,A,,] | 
[V:1] BB2f | 
[V:2] [B,B,,][B,2B,,2][FF,] | 
[V:1] e2d2 | 
[V:2] [E2E,2][D2D,2] | 
[V:1] !accent![gBG] ^F/G/ A/B/c/d/ ]|:  
[V:2] !accent![G,G,,] zz2 ]|:  
[V:1] e/^d/e/f/ g/a/c'/a/ | 
[V:2] [CC,][ECG,] [EE,][_E_E,] | 
[V:1] b/c'/d'/f/ a/g/d/^d/ | 
[V:2] [DD,][FB,G,] [G,G,,][FB,G,] | 
[V:1] e/^d/e/f/ g/a/c'/a/ | 
[V:2] [CC,][ECG,] [EE,][_E_E,] | 
[V:1] b/c'/d'/f/ a/g/d/e/ | 
[V:2] [DD,][FB,G,] [G,G,,][FB,G,] | 
[V:1] f/d/B/^G/ A z | 
[V:2] ^G,/B,/D/F/ [EC] z | 
[V:1] f/d/B/^G/ A z | 
[V:2] ^G,/B,/D/F/ [EC] z | 
[V:1] A,,/C,/^D,/^F,/ A,/C/^D/^F/ | 
[V:2] C,,/^D,,/^F,,/A,,/ C,/^D,/^F,/A,/ | 
[V:1] A/c/^d/^f/ a/c'/^d'/^f'/ | 
[V:2] C/^D/^F/A/ c/^d/^f/a/ | 
[V:1] [_a'_e'c'][^f'/e'/c'/][f'/e'/c'/]- [f'/e'/c'/][f'/e'/c'/][f'e'c'] | 
[V:2] _a_ec_A | 
[V:1] [g'2=e'2c'2]g'/e'/c'/g/ | 
[V:2] G[c=e] E[Gce] & G2E2 | 
[V:1] [a2^f2c2][d'/=f/][d'f][g/f/] | 
[V:2] DA[G2B2] | 
[V:1] [c'e] c/d/ e/f/^f/g/ | 
[V:2] [CGc] zz2 | 
[V:1] [_a_ec][^f/e/c/][f/e/c/]- [f/e/c/][f/e/c/][fec] | 
[V:2] _A_EC_A, | 
[V:1] [g2=e2c2]g/e/c/G/ | 
[V:2] G,2E,2 & G,[=EC] E,[ECG,] | 
[V:1] [A2^F2C2][d/=F/][dF][G/F/] |[1 
[V:2] D,A,[B,2G,2] | 
[V:1] [cE] ^F/G/ A/B/c/d/ ]|:[2 
[V:2] [CG,C,] zz2 ]|:  
[V:1] [cE] g/g/ gg ]|: 
[V:2] [CG,C,] z z [^C^C,] ]|:  
[V:1] !arpeggio![g'/b/g/]f'/d'/b/ g/f/d/B/ | 
[V:2] [DD,][FB,G,] [G,G,,][FB,G,] | 
[V:1] [ec][e/c/A/][e/c/G/]- [e/c/G/][e/c/A/][ecG] | 
[V:2] [CC,][ECG,] [G,G,,][ECG,] | 
[V:1] [fB][f/B/A/][f/B/G/]- [f/B/G/][f/A/][fG] | 
[V:2] [DD,][FB,G,] [G,G,,][FB,G,] | 
[V:1] [ec][e/c/A/][e/c/G/]- [e/c/G/]g/c'/e'/ | 
[V:2] [CC,][ECG,] [G,G,,][ECG,] | 
[V:1] !arpeggio![g'/b/g/]f'/d'/b/ g/f/d/B/ | 
[V:2] [DD,][FB,G,] [G,G,,][FB,G,] | 
[V:1] [ec][e/c/A/][e/c/G/]- [e/c/G/]G/[e^AG] | 
[V:2] [CC,][ECG,] [E,E,,][^C,^C,,] | 
[V:1] [eBG][d/B/G/][B/G/]- [B/G/][G/B,/][AC] | 
[V:2] [D,D,,][G,D,] [D,D,,][^F,D,] | 
[V:1] [G/B,/]G/B/d/ g/g/b/d'/ & B, zz2 | 
[V:2] [G,D,G,,] z [DB,G,] z | 
[V:1] !arpeggio![g'/b/g/]f'/d'/b/ g/f/d/B/ | 
[V:2] [DD,][FB,G,] [G,G,,][FB,G,] | 
[V:1] [ec][e/c/A/][e/c/G/]- [e/c/G/][e/c/A/][ecG] | 
[V:2] [CC,][ECG,] [G,G,,][ECG,] | 
[V:1] [fB][f/B/A/][f/B/G/]- [f/B/G/][f/A/][fG] | 
[V:2] [DD,][FB,G,] [G,G,,][FB,G,] | 
[V:1] [ec][f/c/A/][e/c/G/]- [ecG]!accent![gdB] | 
[V:2] [CC,][ECG,] [ECG,]!accent![G,G,,] | 
[V:1] c/e/g/c'/ c/e/g/c'/ | 
[V:2] [C2C,2][_B,2_B,,2] & C,[ECG,] _B,,[ECG,] | 
[V:1] c/f/c'/f/ c/c'^f/ | 
[V:2] [A,2A,,2][_A,2_A,,2] & A,,[FCA,] _A,,[^DC_A,] | 
[V:1] g/G/e/d/ [c^F][dB=F] |[1 
[V:2] [G,G,,][ECG,] [A,A,,][G,G,,] | 
[V:1] [cE] g/g/ gg :|][2 
[V:2] [CC,] z z [^C^C,] :|]  
[V:1] [c2E2][c'ec] z || 
[V:2] [CC,][G,G,,] [C,C,,] z ||  
[V:1] [fdB][f2d2B2][fdB] | 
[V:2] GG2G | 
[V:1] [fd_B][f2d2B2][fdB] | 
[V:2] _AA2A | 
[V:1] [_e2_B2][=e2c2_B2] | 
[V:2] G2_G2 | 
[V:1] [fcA] z!accent![f2_e2A2F2] ]|:  
[V:2] F z!accent![F,2F,,2] ]|:  
[V:1]  [K:Bb] [f2d2B2F2]-[f/d/B/F/][d/D/][e/E/][=e/=E/] | 
[V:2]  [K:Bb] [D/D,/][B,/B,,/][A,/A,,/][G,/G,,/] [F,/F,,/][B,/B,,/][C/C,/][^C/^C,/] | 
[V:1] [f/F/][d/B/][e/A/E/][d/B/D/]- [d/B/D/]d/f/_a/ | 
[V:2] [DD,][CC,] [B,B,,][DB,F,] | 
[V:1] z/ [g/e/][b/B/][g/e/] [c'/c/][bB][f/d/B/F/]- | 
[V:2] [E,E,,][EB,G,] [E,E,,][^C,^C,,] | 
[V:1] [f2-d2B2F2-][f/F/]A/c/f/ | 
[V:2] [D,D,,][F,/F,,/][B,/B,,/] [CC,][EE,] | 
[V:1] [f2d2B2F2]-[f/d/B/F/][B/B,/][c/C/][^c/^C/] | 
[V:2] [D/D,/][B,/B,,/][A,/A,,/][G,/G,,/] [F,/F,,/][D,/D,,/][E,/E,,/][=E,/=E,,/] | 
[V:1] [d/D/]B/[c/E/C/][B/D/B,/]- [B/D/B,/]G/[B=F] | 
[V:2] [F,F,,][^F,/^F,,/][G,/G,,/]- [G,/G,,/][B,/B,,/][D/D,/][_D/_D,/] | 
[V:1] [A/F/]f/[c/A/F/][d/B/=E/]- [d/B/E/]B/[GE] | 
[V:2] [CC,][CA,] C,[CB,] | 
[V:1] Fc/f/- f/A/c/f/ | 
[V:2] [CA,F,][A,A,,] [CC,][EE,] | 
[V:1] [f2d2B2F2]-[f/d/B/F/][d/D/][e/E/][=e/=E/] | 
[V:2] [D/D,/][B,/B,,/][A,/A,,/][G,/G,,/] [F,/F,,/][B,/B,,/][C/C,/][^C/^C,/] | 
[V:1] [f/F/][d/B/][e/A/E/][d/B/D/]- [d/B/D/]d/f/_a/ | 
[V:2] [DD,][CC,] [B,B,,][DB,F,] | 
[V:1] z/ [g/e/][b/B/][g/e/] [c'/c/][bB][f/d/B/F/]- | 
[V:2] [E,E,,][EB,G,] [E,E,,][G,G,,] | 
[V:1] [f/d/B/F/]d/f/F/ B/d/f/_a/ | 
[V:2] [B,B,,][_A,_A,,] [G,G,,][F,F,,] | 
[V:1] z/ [g/e/][b/B/][g/e/] [c'/c/][bB][f/d/B/F/]- | 
[V:2] [E,E,,][EB,G,] [E,E,,][^C,^C,,] | 
[V:1] [f/d/B/F/][d/B/][f/d/B/F/][g/d/=B/G/]- [g/d/B/G/]d/=B/G/ | 
[V:2] [D,D,,][_A,,_A,,,] [G,,G,,,][FD=B,G,] | 
[V:1] c/G/_B A/f/_e/c/ & =E zz2 |[1 
[V:2] [_B,G,C,][=ECG,] [_ECF,][EA,F,] | 
[V:1] B2z2 :|][2 
[V:2] D2x2 & B,[F,/F,,/][G,/G,,/] [A,/A,,/][B,/B,,/][C/C,/][^C/^C,/] :|]  
[V:1] B2[bdB] z ]|: 
[V:2] D2x2 & B,[F,F,,] [B,,B,,,] z ]|:  
[V:1]  [K:Eb] [B/G/][BG][A/F/] G/^F/G/B/ & x2EE/G/ | 
[V:2]  [K:Eb] E,[EB,G,] B,,[B,G,] | 
[V:1] [eG][b/g/e/][g/e/]- [g/e/][c'/g/e/][bge] | 
[V:2] E,[EB,G,] B,,[EB,G,] | 
[V:1] [B/G/][BG][A/F/] G/^F/G/B/ & x2EE/G/ | 
[V:2] E,[EB,G,] B,,[B,G,] | 
[V:1] [eG][b/g/e/][g/e/]- [g/e/][c'/g/e/][bg^c] | 
[V:2] E,[EB,G,] [E,E,,][=E,=E,,] | 
[V:1] [a/d/][ad][g/d/] f/=e/f/^f/ & x2d2 | 
[V:2] [F,F,,][DB,A,] [B,,B,,,][DB,A,] | 
[V:1] [g/e/G/][a/A/][b/B/][c'/c/]- [c'/c/][d'/d/][e'e] | 
[V:2] [E,E,,][EB,G,] [G,G,,][_G,_G,,] | 
[V:1] [d'/d/][e'/e/][=e'/=e/][f'/f/]- [f'/f/]f/[c'_e] | 
[V:2] [F,F,,][B,F,] [F,F,,][=A,F,] | 
[V:1] [b2d2]-[bd] [BA] | 
[V:2] [B,B,,]F,D,B,, | 
[V:1] [B/G/][BG][A/F/] G/^F/G/B/ & x2EE/G/ | 
[V:2] E,[EB,G,] B,,G, | 
[V:1] [eG][b/g/e/][g/e/]- [g/e/][c'/g/e/][bge] | 
[V:2] E,[EB,G,] B,,[EB,G,] | 
[V:1] [g/=B/][gB][g/B/] a/g/d/f/ & x2B2 | 
[V:2] D,[F=B,G,] G,,[FB,G,] | 
[V:1] [e/c/]f/g/c'/- c'/g/c' | 
[V:2] C,[ECG,] C,[ECG,] | 
[V:1] z/ a/g/f/ a/e'a/ | 
[V:2] [F,F,,][FCA,] [CC,][_C_C,] | 
[V:1] g/e/g[^f2e2c2] | 
[V:2] [B,B,,][EB,G,][=A,2=A,,2] | 
[V:1] [g/e/B/]B/g/f/ [e=A][fd_A] |[1 
[V:2] [B,B,,][EB,G,] [CC,][B,B,,] | 
[V:1] [eG] B/B/ BB :|][2 
[V:2] x2[D2B,2A,2] & [EE,] z F,B,, :|]  
[V:1] [e2G2]!accent![e'ge] z |]  
[V:2] [EE,][B,B,,] !accent![E,E,,] z |]  


